public/svgs/thin/house-building.svg

<svg xmlns="http://www.w3.org/2000/svg" viewBox="0 0 640 512"><!-- Font Awesome Pro 6.0.0-alpha2 by @fontawesome - https://fontawesome.com License - https://fontawesome.com/license (Commercial License) --><path d="M600 0H360C337.938 0 320 17.938 320 40V152C320 156.406 323.594 160 328 160S336 156.406 336 152V40C336 26.781 346.781 16 360 16H600C613.219 16 624 26.781 624 40V504C624 508.406 627.594 512 632 512S640 508.406 640 504V40C640 17.938 622.062 0 600 0ZM552 208H520C506.781 208 496 218.781 496 232V264C496 277.219 506.781 288 520 288H552C565.219 288 576 277.219 576 264V232C576 218.781 565.219 208 552 208ZM560 264C560 268.5 556.5 272 552 272H520C515.5 272 512 268.5 512 264V232C512 227.5 515.5 224 520 224H552C556.5 224 560 227.5 560 232V264ZM440 320H424C419.582 320 416 323.582 416 328S419.582 336 424 336H440C444.418 336 448 339.582 448 344V376C448 380.418 444.418 384 440 384H424C419.582 384 416 387.582 416 392S419.582 400 424 400H440C453.201 400 464 389.199 464 376V344C464 330.799 453.201 320 440 320ZM224 264H160C146.781 264 136 274.781 136 288V352C136 365.219 146.781 376 160 376H224C237.219 376 248 365.219 248 352V288C248 274.781 237.219 264 224 264ZM232 352C232 356.5 228.5 360 224 360H160C155.5 360 152 356.5 152 352V288C152 283.5 155.5 280 160 280H224C228.5 280 232 283.5 232 288V352ZM215.477 105.078C208.82 99.025 200.408 96 191.996 96S175.17 99.025 168.514 105.078L17.139 242.691C6.223 252.617 0 266.686 0 281.438V477.09C0 496.371 15.629 512 34.908 512H349.084C368.361 512 383.99 496.4 383.992 477.121C383.996 424.539 384 328.963 384 281.281C383.998 266.551 377.783 252.627 366.883 242.717L215.477 105.078ZM367.992 477.119C367.99 487.529 359.51 496 349.084 496H34.908C24.482 496 16 487.518 16 477.09V281.438C16 271.215 20.338 261.408 27.902 254.531L179.277 116.916C182.766 113.746 187.281 111.998 191.996 111.998C196.709 111.998 201.225 113.746 204.715 116.918L356.119 254.555C363.668 261.418 367.998 271.16 368 281.281L367.992 477.119ZM440 208H408C402.58 208 397.721 209.924 393.803 213.051C390.365 215.793 390.139 220.975 393.068 224.25C395.615 227.098 400.043 227.98 403.068 225.648C404.416 224.609 406.121 224 408 224H440C444.418 224 448 227.582 448 232V264C448 268.418 444.418 272 440 272H424C419.582 272 416 275.582 416 280S419.582 288 424 288H440C453.201 288 464 277.199 464 264V232C464 218.799 453.201 208 440 208ZM552 320H520C506.781 320 496 330.781 496 344V376C496 389.219 506.781 400 520 400H552C565.219 400 576 389.219 576 376V344C576 330.781 565.219 320 552 320ZM560 376C560 380.5 556.5 384 552 384H520C515.5 384 512 380.5 512 376V344C512 339.5 515.5 336 520 336H552C556.5 336 560 339.5 560 344V376ZM440 96H408C394.781 96 384 106.781 384 120V152C384 165.219 394.781 176 408 176H440C453.219 176 464 165.219 464 152V120C464 106.781 453.219 96 440 96ZM448 152C448 156.5 444.5 160 440 160H408C403.5 160 400 156.5 400 152V120C400 115.5 403.5 112 408 112H440C444.5 112 448 115.5 448 120V152ZM552 96H520C506.781 96 496 106.781 496 120V152C496 165.219 506.781 176 520 176H552C565.219 176 576 165.219 576 152V120C576 106.781 565.219 96 552 96ZM560 152C560 156.5 556.5 160 552 160H520C515.5 160 512 156.5 512 152V120C512 115.5 515.5 112 520 112H552C556.5 112 560 115.5 560 120V152Z"/></svg>

<svg xmlns="http://www.w3.org/2000/svg" viewBox="0 0 640 512"><!--! Font Awesome Pro 6.5.1 by @fontawesome - https://fontawesome.com License - https://fontawesome.com/license (Commercial License) Copyright 2023 Fonticons, Inc. --><path d="M384 16H576c26.5 0 48 21.5 48 48V448c0 26.5-21.5 48-48 48H409.3c-2.5 5.7-5.6 11.1-9.3 16H576c35.3 0 64-28.7 64-64V64c0-35.3-28.7-64-64-64H384c-35.3 0-64 28.7-64 64v89.9l16 14.7V64c0-26.5 21.5-48 48-48zm32 272h24c13.3 0 24-10.7 24-24V232c0-13.3-10.7-24-24-24H408c-7.7 0-14.5 3.6-18.9 9.2l1 .9c3.8 3.5 7.3 7.3 10.3 11.5c1-3.2 4.1-5.6 7.6-5.6h32c4.4 0 8 3.6 8 8v32c0 4.4-3.6 8-8 8H415.8c.1 1.7 .2 3.4 .2 5.1V288zm0 112h24c13.3 0 24-10.7 24-24V344c0-13.3-10.7-24-24-24H416v16h24c4.4 0 8 3.6 8 8v32c0 4.4-3.6 8-8 8H416v16zM520 208c-13.3 0-24 10.7-24 24v32c0 13.3 10.7 24 24 24h32c13.3 0 24-10.7 24-24V232c0-13.3-10.7-24-24-24H520zm-8 24c0-4.4 3.6-8 8-8h32c4.4 0 8 3.6 8 8v32c0 4.4-3.6 8-8 8H520c-4.4 0-8-3.6-8-8V232zM496 344v32c0 13.3 10.7 24 24 24h32c13.3 0 24-10.7 24-24V344c0-13.3-10.7-24-24-24H520c-13.3 0-24 10.7-24 24zm24-8h32c4.4 0 8 3.6 8 8v32c0 4.4-3.6 8-8 8H520c-4.4 0-8-3.6-8-8V344c0-4.4 3.6-8 8-8zM408 96c-13.3 0-24 10.7-24 24v32c0 13.3 10.7 24 24 24h32c13.3 0 24-10.7 24-24V120c0-13.3-10.7-24-24-24H408zm-8 24c0-4.4 3.6-8 8-8h32c4.4 0 8 3.6 8 8v32c0 4.4-3.6 8-8 8H408c-4.4 0-8-3.6-8-8V120zm96 0v32c0 13.3 10.7 24 24 24h32c13.3 0 24-10.7 24-24V120c0-13.3-10.7-24-24-24H520c-13.3 0-24 10.7-24 24zm24-8h32c4.4 0 8 3.6 8 8v32c0 4.4-3.6 8-8 8H520c-4.4 0-8-3.6-8-8V120c0-4.4 3.6-8 8-8zM16 280.6c0-11.2 4.7-21.9 13-29.5L165 126.5c15.3-14 38.8-14 54.1 0L355 251.1c8.3 7.6 13 18.3 13 29.5V456c0 22.1-17.9 40-40 40H56c-22.1 0-40-17.9-40-40V280.6zM0 456c0 30.9 25.1 56 56 56H328c30.9 0 56-25.1 56-56V280.6c0-15.7-6.6-30.7-18.2-41.3l-136-124.7c-21.4-19.6-54.3-19.6-75.7 0L18.2 239.4C6.6 250 0 264.9 0 280.6V456zM224 280c4.4 0 8 3.6 8 8v64c0 4.4-3.6 8-8 8H160c-4.4 0-8-3.6-8-8V288c0-4.4 3.6-8 8-8h64zm-64-16c-13.3 0-24 10.7-24 24v64c0 13.3 10.7 24 24 24h64c13.3 0 24-10.7 24-24V288c0-13.3-10.7-24-24-24H160z"/></svg>
